icons/svg/call-log_20.svg

<?xml version="1.0" encoding="UTF-8"?>
<svg width="20px" height="20px" viewBox="0 0 20 20" version="1.1" xmlns="http://www.w3.org/2000/svg" xmlns:xlink="http://www.w3.org/1999/xlink">
    <!-- Generator: Sketch 59.1 (86144) - https://sketch.com -->
    <title>call-log_20</title>
    <desc>Created with Sketch.</desc>
    <g id="New-Icon" stroke="none" stroke-width="1" fill="none" fill-rule="evenodd">
        <g id="call-log_20" fill="#171B1F">
            <path d="M4.7632,2.0005 C5.7152,2.0005 6.5742,2.5655 6.9512,3.4405 L6.9512,3.4405 L7.6482,5.0625 C7.9812,5.8365 7.9562,6.7125 7.5792,7.4645 L7.5792,7.4645 L7.1092,8.4055 C7.0312,8.5615 7.0512,8.7445 7.1602,8.8845 C8.1402,10.1445 9.6252,11.6185 11.1332,12.8285 C11.2702,12.9385 11.4572,12.9605 11.6122,12.8825 L11.6122,12.8825 L12.5352,12.4205 C13.2882,12.0445 14.1642,12.0195 14.9372,12.3515 L14.9372,12.3515 L14.9382,12.3515 L16.5592,13.0485 C17.4352,13.4255 18.0002,14.2845 18.0002,15.2375 L18.0002,15.2375 L18.0002,17.0835 C18.0002,17.6795 17.7302,18.2315 17.2592,18.5985 C16.9202,18.8615 16.5132,19.0005 16.0972,19.0005 C15.9402,19.0005 15.7832,18.9805 15.6272,18.9415 C12.7642,18.2135 9.4972,16.1705 6.6632,13.3365 C3.8282,10.5015 1.7862,7.2345 1.0592,4.3725 C0.9142,3.8015 1.0392,3.2075 1.4022,2.7415 C1.7682,2.2705 2.3202,2.0005 2.9162,2.0005 L2.9162,2.0005 Z M4.7632,3.0005 L2.9162,3.0005 C2.6312,3.0005 2.3672,3.1295 2.1912,3.3545 C2.0192,3.5765 1.9602,3.8565 2.0282,4.1255 C2.7122,6.8185 4.6592,9.9185 7.3702,12.6295 C10.0802,15.3405 13.1802,17.2875 15.8742,17.9725 C16.1412,18.0395 16.4232,17.9805 16.6452,17.8085 C16.8712,17.6335 17.0002,17.3695 17.0002,17.0835 L17.0002,17.0835 L17.0002,15.2375 C17.0002,14.6845 16.6722,14.1865 16.1642,13.9675 L16.1642,13.9675 L14.5422,13.2705 C14.0392,13.0545 13.4712,13.0705 12.9822,13.3155 L12.9822,13.3155 L12.0592,13.7775 C11.5572,14.0285 10.9472,13.9625 10.5062,13.6075 C8.9182,12.3335 7.4112,10.8355 6.3712,9.4995 C6.0282,9.0585 5.9672,8.4535 6.2142,7.9585 L6.2142,7.9585 L6.6852,7.0175 C6.9292,6.5285 6.9452,5.9605 6.7292,5.4575 L6.7292,5.4575 L6.0322,3.8355 C5.8142,3.3285 5.3152,3.0005 4.7632,3.0005 L4.7632,3.0005 Z M12.9998,0.9995 C16.3088,0.9995 18.9998,3.6915 18.9998,6.9995 C18.9998,8.6675 18.3318,10.2175 17.1178,11.3635 C17.0218,11.4545 16.8978,11.4995 16.7748,11.4995 C16.6418,11.4995 16.5098,11.4475 16.4118,11.3435 C16.2218,11.1425 16.2308,10.8265 16.4318,10.6365 C17.4428,9.6815 17.9998,8.3895 17.9998,6.9995 C17.9998,4.2435 15.7568,1.9995 12.9998,1.9995 C11.3748,1.9995 9.8458,2.7945 8.9088,4.1245 C8.7498,4.3515 8.4378,4.4055 8.2128,4.2455 C7.9868,4.0865 7.9318,3.7745 8.0918,3.5495 C9.2148,1.9535 11.0498,0.9995 12.9998,0.9995 Z M13.0002,4.5 C13.2762,4.5 13.5002,4.724 13.5002,5 L13.5002,5 L13.5002,7.293 L14.8542,8.646 C15.0492,8.842 15.0492,9.158 14.8542,9.354 C14.7562,9.451 14.6282,9.5 14.5002,9.5 C14.3722,9.5 14.2442,9.451 14.1462,9.354 L14.1462,9.354 L12.6462,7.854 C12.5532,7.76 12.5002,7.633 12.5002,7.5 L12.5002,7.5 L12.5002,5 C12.5002,4.724 12.7242,4.5 13.0002,4.5 Z" id="fill"></path>
        </g>
    </g>
</svg>

<svg width="20" height="20" xmlns="http://www.w3.org/2000/svg"><path d="M4.763 2a2.38 2.38 0 012.188 1.44l.697 1.623c.333.774.308 1.65-.069 2.402l-.47.94a.447.447 0 00.051.48c.98 1.26 2.465 2.733 3.973 3.944.137.11.324.131.48.053l.922-.461a2.85 2.85 0 012.402-.07h.001l1.621.697A2.38 2.38 0 0118 15.239v1.846c0 .596-.27 1.148-.74 1.515a1.892 1.892 0 01-1.633.343c-2.863-.729-6.13-2.771-8.964-5.606-2.835-2.835-4.877-6.102-5.604-8.963a1.882 1.882 0 01.343-1.632 1.905 1.905 0 011.514-.74zm0 1H2.916a.915.915 0 00-.725.354.892.892 0 00-.163.771C2.712 6.82 4.66 9.918 7.37 12.63c2.71 2.71 5.81 4.658 8.504 5.342A.91.91 0 0017 17.084v-1.845c0-.553-.328-1.051-.836-1.27l-1.622-.697a1.847 1.847 0 00-1.56.044l-.923.463a1.45 1.45 0 01-1.553-.17c-1.588-1.274-3.095-2.773-4.135-4.109a1.461 1.461 0 01-.157-1.54l.471-.941a1.85 1.85 0 00.044-1.56l-.697-1.623a1.38 1.38 0 00-1.269-.834zM13 1c3.309 0 6 2.692 6 6a5.945 5.945 0 01-1.882 4.364.498.498 0 01-.706-.02.5.5 0 01.02-.707A4.957 4.957 0 0018 6.998c0-2.755-2.243-5-5-5a5.012 5.012 0 00-4.091 2.126.497.497 0 01-.696.12.498.498 0 01-.121-.696A6.01 6.01 0 0113 1zm0 3.5a.5.5 0 01.5.5v2.293l1.354 1.353a.502.502 0 01-.708.708l-1.5-1.5A.504.504 0 0112.5 7.5V5a.5.5 0 01.5-.5z" fill="#171B1F" fill-rule="evenodd"/></svg>
